Themes/Default/ButtonIcons/Add.svg

<svg height="30" viewBox="0 0 7.9374991 7.9375032" width="30" xmlns="http://www.w3.org/2000/svg"><path d="m1.6285682.45845918a1.1700987 1.1700987 0 0 0 -1.17011233 1.17008252v2.3402246 2.3401947a1.1700987 1.1700987 0 0 0 1.17011233 1.1700825h2.3401947.0051 2.335091a1.1700987 1.1700987 0 0 0 1.1700824-1.1700825 1.1700987 1.1700987 0 0 0 0-.00513v-2.335061a1.1700987 1.1700987 0 0 0 0-.00513v-2.3350983a1.1700987 1.1700987 0 0 0 -1.1700786-1.17008252h-.00513-2.335061-.00513-2.3299571a1.1700987 1.1700987 0 0 0 -.0051 0z" fill="none" opacity=".998204" stroke="#dbdbe3" stroke-width=".916916"/><path d="m3.9687474 1.6573199c-.426847 0-.770688.3438408-.770688.770688v.7706878h-.770054c-.4268472 0-.770688.3432074-.770688.7700543 0 .4268472.3438408.770688.770688.770688h.770054v.770688c0 .4268472.343841.7700541.770688.7700541.4268473 0 .770688-.3432069.770688-.7700541v-.770688h.7700542c.4268473 0 .770688-.3438408.770688-.770688 0-.4268469-.3438407-.7700543-.770688-.7700543h-.7700542v-.7706878c0-.4268472-.3438407-.770688-.770688-.770688z" fill="#dbdbe3" opacity=".998204"/></svg>

<?xml version="1.0" encoding="UTF-8" standalone="no"?>
<svg
   xmlns:dc="http://purl.org/dc/elements/1.1/"
   xmlns:cc="http://creativecommons.org/ns#"
   xmlns:rdf="http://www.w3.org/1999/02/22-rdf-syntax-ns#"
   xmlns:svg="http://www.w3.org/2000/svg"
   xmlns="http://www.w3.org/2000/svg"
   xmlns:sodipodi="http://sodipodi.sourceforge.net/DTD/sodipodi-0.dtd"
   xmlns:inkscape="http://www.inkscape.org/namespaces/inkscape"
   width="30"
   height="30"
   viewBox="0 0 7.9374991 7.9375032"
   version="1.1"
   id="svg8"
   inkscape:version="1.0.2 (e86c870879, 2021-01-15, custom)"
   sodipodi:docname="Add.svg">
  <defs
     id="defs2" />
  <sodipodi:namedview
     id="base"
     pagecolor="#ffffff"
     bordercolor="#666666"
     borderopacity="1.0"
     inkscape:pageopacity="0.0"
     inkscape:pageshadow="2"
     inkscape:zoom="11.2"
     inkscape:cx="13.083679"
     inkscape:cy="26.520946"
     inkscape:document-units="px"
     inkscape:current-layer="layer1"
     inkscape:document-rotation="0"
     showgrid="false"
     units="px"
     inkscape:snap-bbox="false"
     inkscape:snap-bbox-edge-midpoints="true"
     inkscape:bbox-paths="true"
     inkscape:bbox-nodes="true"
     inkscape:snap-bbox-midpoints="true"
     showguides="false"
     inkscape:window-width="1820"
     inkscape:window-height="953"
     inkscape:window-x="45"
     inkscape:window-y="72"
     inkscape:window-maximized="0"
     inkscape:snap-global="true" />
  <metadata
     id="metadata5">
    <rdf:RDF>
      <cc:Work
         rdf:about="">
        <dc:format>image/svg+xml</dc:format>
        <dc:type
           rdf:resource="http://purl.org/dc/dcmitype/StillImage" />
        <dc:title />
      </cc:Work>
    </rdf:RDF>
  </metadata>
  <g
     inkscape:label="Layer 1"
     inkscape:groupmode="layer"
     id="layer1">
    <path
       id="path901"
       style="opacity:0.998204;fill:none;stroke:#dbdbe3;stroke-width:0.916916;stroke-opacity:1"
       d="M 1.6285682,0.45845918 A 1.1700987,1.1700987 0 0 0 0.45845587,1.6285417 V 3.9687663 6.308961 A 1.1700987,1.1700987 0 0 0 1.6285682,7.4790435 h 2.3401947 0.0051 2.335091 a 1.1700987,1.1700987 0 0 0 1.1700824,-1.1700825 1.1700987,1.1700987 0 0 0 0,-0.00513 V 3.96877 a 1.1700987,1.1700987 0 0 0 0,-0.00513 V 1.6285417 A 1.1700987,1.1700987 0 0 0 6.3089577,0.45845918 h -0.00513 -2.335061 -0.00513 -2.3299571 a 1.1700987,1.1700987 0 0 0 -0.0051,0 z" />
    <path
       id="rect941"
       style="opacity:0.998204;fill:#dbdbe3;fill-opacity:1;stroke:none;stroke-width:19.47;stroke-opacity:1"
       d="m 3.9687474,1.6573199 c -0.426847,0 -0.770688,0.3438408 -0.770688,0.770688 v 0.7706878 h -0.770054 c -0.4268472,0 -0.770688,0.3432074 -0.770688,0.7700543 0,0.4268472 0.3438408,0.770688 0.770688,0.770688 h 0.770054 v 0.770688 c 0,0.4268472 0.343841,0.7700541 0.770688,0.7700541 0.4268473,0 0.770688,-0.3432069 0.770688,-0.7700541 V 4.739438 h 0.7700542 c 0.4268473,0 0.770688,-0.3438408 0.770688,-0.770688 0,-0.4268469 -0.3438407,-0.7700543 -0.770688,-0.7700543 H 4.7394354 V 2.4280079 c 0,-0.4268472 -0.3438407,-0.770688 -0.770688,-0.770688 z" />
  </g>
</svg>
